icons/_assets/line_chart.svg

<svg width="100" height="100" xmlns="http://www.w3.org/2000/svg"><path d="M60.5259259,46.0041751 C60.5259259,46.926734 60.8680135,47.740202 61.4902357,48.2950842 C62.1232323,48.8593939 62.986532,49.1125926 63.9306397,49.0048485 C66.0653199,48.7610774 67.8700337,46.7583838 67.8700337,44.6304377 C67.8700337,43.7078788 67.5279461,42.8944108 66.9057239,42.3395286 C66.3683502,41.8600673 65.6612795,41.6055219 64.8841751,41.6055219 C64.7481481,41.6055219 64.606734,41.6136027 64.4653199,41.6297643 C62.3292929,41.8735354 60.5259259,43.876229 60.5259259,46.0041751 M28.8478114,49.076229 C28.8478114,44.5173064 32.4154882,40.5375084 36.9676768,40.0189899 C39.2626263,39.7577104 41.4323232,40.4243771 43.0808081,41.8950842 C44.0666667,42.7758923 44.7818182,43.876229 45.196633,45.109899 L56.0855219,43.8694949 C56.9905724,40.2600673 60.1084175,37.3819529 63.9306397,36.946936 C64.8397306,36.8445791 65.7272727,36.8917172 66.573064,37.0721886 L79.8740741,14.7018182 L74.3010101,16.4041751 C73.0525253,16.7799327 71.7367003,16.0849832 71.3569024,14.8391919 C70.9771044,13.5947475 71.6774411,12.2775758 72.9218855,11.896431 L84.4572391,8.37185185 C85.0969697,8.17925926 85.786532,8.26141414 86.3589226,8.60484848 C86.9299663,8.94828283 87.3299663,9.5179798 87.4592593,10.1725253 L89.6707071,21.4546801 C89.9198653,22.7314478 89.0875421,23.9705051 87.8107744,24.2210101 C87.6572391,24.2506397 87.5037037,24.2654545 87.3542088,24.2654545 C86.2498316,24.2654545 85.2639731,23.4856566 85.0430976,22.3610774 L83.9925926,16.9967677 L70.6525253,39.4344781 C71.9023569,40.8351515 72.5838384,42.6492929 72.5838384,44.6304377 C72.5838384,49.1907071 69.0175084,53.1691582 64.4653199,53.6876768 C64.1393939,53.7240404 63.813468,53.7428956 63.4942761,53.7428956 C61.5643098,53.7428956 59.76633,53.0735354 58.3521886,51.8115825 C57.3649832,50.9321212 56.6511785,49.8304377 56.2350168,48.5967677 L45.3461279,49.8371717 C44.4424242,53.4465993 41.3232323,56.3247138 37.5010101,56.7597306 C37.1750842,56.7974411 36.8505051,56.8162963 36.5313131,56.8162963 C36.0909091,56.8162963 35.6626263,56.7718519 35.2410774,56.703165 L21.2531987,81.4425589 C20.8195286,82.2102357 20.0208754,82.6412121 19.1979798,82.6412121 C18.8060606,82.6412121 18.4087542,82.5415488 18.0410774,82.3354882 C16.9070707,81.6944108 16.5084175,80.2560269 17.1494949,79.123367 L31.0457912,54.5442424 C29.6316498,53.109899 28.8478114,51.1920539 28.8478114,49.076229 M91.5804714,84.4001347 L8.81279461,93.8950842 C8.72255892,93.9045118 8.63367003,93.909899 8.54343434,93.909899 C7.96835017,93.909899 7.40942761,93.6984512 6.97441077,93.3119192 C6.47340067,92.8647811 6.18653199,92.2250505 6.18653199,91.5529966 L6.18653199,12.6519865 C6.18653199,11.699798 6.76026936,10.8418855 7.63838384,10.4755556 C8.52053872,10.113266 9.53333333,10.3112458 10.206734,10.9819529 L17.3892256,18.1321212 C18.3117845,19.0506397 18.3144781,20.5428956 17.3973064,21.4654545 C16.4774411,22.3866667 14.9838384,22.3907071 14.0639731,21.4735354 L10.9003367,18.3247138 L10.9003367,88.9092256 L91.0430976,79.7173064 C92.3400673,79.5705051 93.5050505,80.4984512 93.6531987,81.7900337 C93.8013468,83.082963 92.8734007,84.2519865 91.5804714,84.4001347" fill="#134B45" fill-rule="evenodd"/></svg>

<svg width="100" height="100" xmlns="http://www.w3.org/2000/svg"><path d="M60.526 46.004c0 .923.342 1.736.964 2.291.633.564 1.497.818 2.44.71 2.135-.244 3.94-2.247 3.94-4.375 0-.922-.342-1.736-.964-2.29-.538-.48-1.245-.734-2.022-.734a3.71 3.71 0 0 0-.419.024c-2.136.244-3.94 2.246-3.94 4.374m-31.677 3.072c0-4.559 3.567-8.538 8.12-9.057 2.295-.261 4.464.405 6.113 1.876a7.484 7.484 0 0 1 2.116 3.215l10.889-1.24c.905-3.61 4.022-6.488 7.845-6.923a8.222 8.222 0 0 1 2.642.125l13.301-22.37-5.573 1.702a2.36 2.36 0 0 1-2.944-1.565 2.358 2.358 0 0 1 1.565-2.943l11.535-3.524c.64-.193 1.33-.11 1.902.233.571.343.971.913 1.1 1.568l2.212 11.282a2.359 2.359 0 0 1-4.628.906l-1.05-5.364-13.34 22.437c1.25 1.401 1.93 3.215 1.93 5.196 0 4.56-3.565 8.54-8.118 9.058a8.784 8.784 0 0 1-.97.055c-1.93 0-3.729-.67-5.143-1.931a7.479 7.479 0 0 1-2.117-3.215l-10.889 1.24c-.904 3.61-4.023 6.488-7.845 6.923-.326.037-.65.056-.97.056-.44 0-.868-.044-1.29-.113l-13.988 24.74a2.357 2.357 0 1 1-4.104-2.32l13.897-24.579c-1.414-1.434-2.198-3.352-2.198-5.468M91.58 84.4 8.813 93.895a2.363 2.363 0 0 1-1.838-.583 2.358 2.358 0 0 1-.788-1.759V12.652c0-.952.573-1.81 1.451-2.176a2.365 2.365 0 0 1 2.569.506l7.182 7.15a2.358 2.358 0 0 1-3.325 3.342l-3.164-3.15V88.91l80.143-9.192a2.357 2.357 0 1 1 .537 4.683" fill="#134B45" fill-rule="evenodd"/></svg>
